X:232
T:Willie Coleman's
N:page 76
N:hexatonic
R:jig
E:10
S:M. Molloy
I:speed 350
M:6/8
K:Cmaj
D|"C"E2C DCA,|CA,G, C2G|AGE Gce|"G"dcA GED|\
"C"E2C DCA,|CA,G, C2G|AGE GED|"G"ECC "C"C2::B|
"C"~c3 AGE|"F"Gce dcA|"C"~c3 AGE|"G"CEG A3|\
"C"~c3 AGE|"F"Gce dcA|"C"GEG cGE|"G"DCB, C2:|

